svgs/solid/ghost.svg

<svg xmlns="http://www.w3.org/2000/svg" viewBox="0 0 384 512"><!--! Font Awesome Pro 6.0.0-alpha3 by @fontawesome - https://fontawesome.com License - https://fontawesome.com/license (Commercial License) --><path d="M186.1 .1032c-105.1 3.126-186.1 94.75-186.1 199.9v264c0 14.25 17.3 21.38 27.3 11.25l24.95-18.5c6.625-5.001 16-4.001 21.5 2.25l43 48.31c6.25 6.251 16.37 6.251 22.62 0l40.62-45.81c6.375-7.251 17.62-7.251 24 0l40.63 45.81c6.25 6.251 16.38 6.251 22.62 0l43-48.31c5.5-6.251 14.88-7.251 21.5-2.25l24.95 18.5c10 10.13 27.3 3.002 27.3-11.25V192C384 83.98 294.9-3.147 186.1 .1032zM128 224c-17.62 0-31.1-14.38-31.1-32.01s14.38-32.01 31.1-32.01s32 14.38 32 32.01S145.6 224 128 224zM256 224c-17.62 0-32-14.38-32-32.01s14.38-32.01 32-32.01c17.62 0 32 14.38 32 32.01S273.6 224 256 224z"/></svg>

<svg xmlns="http://www.w3.org/2000/svg" viewBox="0 0 384 512"><!-- Font Awesome Pro 6.0.0-alpha2 by @fontawesome - https://fontawesome.com License - https://fontawesome.com/license (Commercial License) --><path d="M186.125 0.088C81 3.214 0 94.856 0 200.002V464.053C0 478.306 17.25 485.432 27.25 475.305L52.25 456.802C58.875 451.801 68.25 452.801 73.75 459.052L116.75 507.312C123 513.563 133.125 513.563 139.375 507.312L180 461.553C186.375 454.301 197.625 454.301 204 461.553L244.625 507.312C250.875 513.563 261 513.563 267.25 507.312L310.25 459.052C315.75 452.801 325.125 451.801 331.75 456.802L356.75 475.305C366.75 485.432 384 478.306 384 464.053V192C384 83.979 294.875 -3.163 186.125 0.088ZM128 224.007C110.375 224.007 96 209.629 96 192S110.375 159.994 128 159.994S160 174.372 160 192S145.625 224.007 128 224.007ZM256 224.007C238.375 224.007 224 209.629 224 192S238.375 159.994 256 159.994C273.625 159.994 288 174.372 288 192S273.625 224.007 256 224.007Z"/></svg>
